X:061
T:Seneca Square Dance
T:Waiting for the Federals
Z:Nigel Gatherer
M:2/4
L:1/8
K:G
B2 BA/B/|dB B/A/G|B2 d>B|A/B/A/G/ ED|B2 BA/B/|dB B/A/G|
A/B/A/G/ EF|G2 G2::g2 g>e|d B2 B/d/|g2 g/f/g/a/|
b/ee/ ef|g/a/b/a/ g>e|d/g/e/d/ B/A/G|A/B/A/G/ EF|G2 G2:|
<end>
<start>
